X:1
T:Latakia, 12.9.12.9
T:Latakia, 12.9.12.9
T:Edward G. Taylor, 1860
T:Public Domain Courtesy of the Cyber Hymnal™
C:Edward G. Taylor, 1860
Z:Public Domain
Z:Courtesy of the Cyber Hymnal™
%%score 1 ( 2 3 )
L:1/8
Q:1/4=130
M:4/2
K:G
V:1 treble 
V:2 bass 
V:3 bass 
V:1
 [B,G]2 [CA]2 | [DB]4 [DB]2 [DB]2 [DB]4 [Ec]3 [DB] | [DB]2 [CA]2 [B,G]2 [CA]2 [DB]4 [GB]2 [Ac]2 | %3
 [Bd]4 [Bd]3 [ce] [Bd]2 [GB]2 [DG]2 [GB]2 | [FA]12 [B,G]2 [CA]2 | %5
 [DB]4 [DB]2 [DB]2 [DB]4 [Ec]3 [DB] | [DB]2 [CA]2 [B,G]2 [CA]2 [DB]4 [GB]2 [Ac]2 | %7
 [Bd]4 [GB]2 [DG]2 [CA]4 [DB]3 [CA] | [B,G]8 |] %9
V:2
 G,2 G,2 | G,4 G,2 G,2 G,4 G,3 G, | D,4 D,2 D,2 G,4 G,2 G,2 | G,4 G,3 G, G,2 D,2 B,,2 G,,2 | %4
 D,12 G,2 G,2 | G,4 G,2 G,2 G,4 G,3 G, | D,4 D,2 D,2 G,4 G,2 G,2 | G,4 G,2 B,,2 D,4 D,3 D, | G,8 |] %9
V:3
 G,2 G,2 | G,4 G,2 G,2 G,4 G,3 G, | D,4 D,2 D,2 G,4 G,2 G,2 | G,4 G,3 G, G,2 D,2 B,,2 G,,2 | %4
 D,12 G,2 G,2 | G,4 G,2 G,2 G,4 G,3 G, | D,4 D,2 D,2 G,4 G,2 G,2 | G,4 G,2 B,,2 D,4 D,3 D, | G,8 |] %9

